X:11170
T:Morgan Rattler. JC.013
M:6/8
L:1/8
Q:127
S:John Clare,Poet,Helpston. (1793-1864)
R:Jig
O:England
A:Northamptonshire
N:Text exists but it looks like a dance setting to me. CGP.
Z:P Headford
K:D
|:B|AFE EFE|FEFD2B|AFE EFE|~B2A Bcd|!
AFE EFE|FEF D2B/c/|dcB cB^A|B2^A Bcd:|!
|:d2e fdB|c2d ecA|d2e fed|~f2e fga|!
d2e fdB|c2d efg|fed cB^A|B2^A Bcd:|!
|:D2d dcd|E2e ede|D2d dcd|B2A Bcd|!
D2d dcd|E2e efg|fed cB^A|B2^A Bcd:|]
W:Song text exists. See Deacon.
